app/svg/icon-send-arrow.svg

<svg width="16" height="16" viewBox="0 0 16 16" fill="none" xmlns="http://www.w3.org/2000/svg"><g clip-path="url(#clip0)"><path d="M3.5059 7.79423L3.49185 7.7973H9.51424L7.62102 5.89991C7.52831 5.80728 7.47746 5.68179 7.47746 5.55009C7.47746 5.41838 7.52831 5.29377 7.62102 5.20091L7.91561 4.90618C8.00824 4.81355 8.13168 4.76233 8.26331 4.76233C8.39502 4.76233 8.51853 4.81318 8.61117 4.90582L11.8565 8.15087C11.9495 8.24387 12.0004 8.36774 12 8.49952C12.0004 8.63204 11.9495 8.75599 11.8565 8.84884L8.61117 12.0942C8.51853 12.1867 8.3951 12.2377 8.26331 12.2377C8.13168 12.2377 8.00824 12.1867 7.91561 12.0942L7.62102 11.7994C7.52831 11.707 7.47746 11.5834 7.47746 11.4517C7.47746 11.3201 7.52831 11.2031 7.62102 11.1105L9.53561 9.20255H3.49917C3.22792 9.20255 3 8.96877 3 8.69767V8.28082C3 8.00972 3.23466 7.79423 3.5059 7.79423Z" fill="black"></path></g><defs><clipPath id="clip0"><rect width="9" height="9" transform="matrix(-1 0 0 1 12 4)" fill="white"/></clipPath></defs></svg>

<svg width="16" height="16" fill="none" xmlns="http://www.w3.org/2000/svg"><g clip-path="url(#clip0)"><path d="M3.5 7.8H9.5L7.62 5.9a.5.5 0 01-.14-.35.5.5 0 01.14-.35l.3-.3a.49.49 0 01.7 0l3.24 3.25c.09.1.14.22.14.35 0 .13-.05.26-.14.35L8.6 12.09a.49.49 0 01-.7 0l-.29-.3a.49.49 0 010-.68l1.92-1.9H3.5A.51.51 0 013 8.7v-.42a.5.5 0 01.5-.49z" fill="#000"></path></g><defs><clipPath id="clip0"><path transform="matrix(-1 0 0 1 12 4)" fill="#fff" d="M0 0h9v9H0z"></path></clipPath></defs></svg>
